;FLAVOR:UltiGCode
;TIME:4844      
;MATERIAL:21168     
;MATERIAL2:0         

;Layer count: 8
;LAYER:0
M107
G0 F9000 X26.973 Y37.775 Z0.300
;TYPE:SKIRT
G1 F1800 X31.874 Y34.214 E0.72697
G1 X32.589 Y33.694 E0.83306
G1 X38.123 Y31.231 E1.55995
G1 X38.934 Y30.869 E1.66652
G1 X44.862 Y29.610 E2.39375
G1 X45.725 Y29.425 E2.49966
G1 X52.670 Y29.425 E3.33306
G1 X58.599 Y30.684 E4.06040
G1 X59.465 Y30.870 E4.16669
G1 X65.000 Y33.333 E4.89369
G1 X65.809 Y33.694 E4.99999
G1 X70.710 Y37.255 E5.72696
G1 X71.426 Y37.776 E5.83322
G1 X75.477 Y42.276 E6.55980
G1 X76.071 Y42.934 E6.66617
G1 X79.545 Y48.949 E7.49971
G1 X81.415 Y54.710 E8.22654
G1 X81.416 Y54.710 E8.22666
G1 X81.690 Y55.553 E8.33303
G1 X82.323 Y61.576 E9.05977
G1 X82.417 Y62.458 E9.16621
G1 X81.783 Y68.487 E9.89368
G1 X81.690 Y69.368 E9.99998
G1 X79.818 Y75.130 E10.72700
G1 X79.544 Y75.972 E10.83326
G1 X76.072 Y81.984 E11.66636
G1 X72.017 Y86.488 E12.39361
G1 X71.424 Y87.146 E12.49991
G1 X65.808 Y91.227 E13.33297
G1 X59.463 Y94.051 E14.16638
G1 X52.671 Y95.495 E14.99964
G1 X45.727 Y95.495 E15.83292
G1 X38.935 Y94.051 E16.66617
G1 X32.590 Y91.227 E17.49958
G1 X26.974 Y87.146 E18.33264
G1 X26.382 Y86.489 E18.43877
G1 X22.325 Y81.984 E19.16627
G1 X21.883 Y81.217 E19.27250
G1 X18.853 Y75.970 E19.99959
G1 X18.580 Y75.128 E20.10580
G1 X16.707 Y69.365 E20.83297
G1 X16.615 Y68.485 E20.93915
G1 X16.616 Y68.485 E20.93927
G1 X15.981 Y62.461 E21.66615
G1 X16.073 Y61.581 E21.77233
G1 X16.708 Y55.555 E22.49945
G1 X16.980 Y54.714 E22.60552
G1 X18.853 Y48.950 E23.33280
G1 X19.295 Y48.183 E23.43903
G1 X22.327 Y42.935 E24.16634
G1 X22.919 Y42.277 E24.27255
G1 X26.973 Y37.775 E24.99955
G10
G0 F9000 X29.532 Y40.613
;TYPE:WALL-INNER
G11
G1 F1800 X34.501 Y37.002 E25.73665
G1 X40.114 Y34.503 E26.47395
G1 X45.652 Y33.327 E27.15332
G1 X46.129 Y33.225 E27.21186
G1 X52.270 Y33.225 E27.94878
G1 X57.806 Y34.401 E28.62792
G1 X58.284 Y34.503 E28.68657
G1 X63.897 Y37.002 E29.42387
G1 X68.869 Y40.615 E30.16140
G1 X72.979 Y45.179 E30.89843
G1 X76.054 Y50.504 E31.63632
G1 X77.953 Y56.348 E32.37369
G1 X78.595 Y62.460 E33.11117
G1 X77.953 Y68.572 E33.84864
G1 X76.054 Y74.416 E34.58602
G1 X72.979 Y79.741 E35.32391
G1 X68.869 Y84.305 E36.06093
G1 X63.897 Y87.918 E36.79846
G1 X58.284 Y90.417 E37.53576
G1 X52.270 Y91.695 E38.27355
G1 X46.128 Y91.695 E39.01059
G1 X40.114 Y90.417 E39.74839
G1 X34.501 Y87.918 E40.48569
G1 X29.532 Y84.307 E41.22279
G1 X25.417 Y79.738 E41.96066
G1 X22.344 Y74.416 E42.69812
G1 X20.445 Y68.571 E43.43561
G1 X19.803 Y62.460 E44.17296
G1 X20.445 Y56.349 E44.91032
G1 X22.344 Y50.504 E45.64781
G1 X25.417 Y45.182 E46.38527
G1 X29.532 Y40.613 E47.12313
G0 F9000 X33.548 Y45.456
G1 F1800 X32.961 Y45.756 E47.20224
G1 X32.495 Y46.222 E47.28132
G1 X32.195 Y46.809 E47.36043
G1 X32.091 Y47.460 E47.43954
G1 X32.195 Y48.112 E47.51877
G1 X32.495 Y48.699 E47.59787
G1 X32.961 Y49.165 E47.67696
G1 X33.548 Y49.465 E47.75606
G1 X34.199 Y49.567 E47.83514
G1 X34.850 Y49.465 E47.91421
G1 X35.438 Y49.165 E47.99342
G1 X35.904 Y48.699 E48.07251
G1 X36.204 Y48.111 E48.15172
G1 X36.306 Y47.460 E48.23079
G1 X36.204 Y46.809 E48.30986
G1 X35.904 Y46.222 E48.38897
G1 X35.438 Y45.756 E48.46805
G1 X34.851 Y45.456 E48.54716
G1 X34.199 Y45.352 E48.62639
G1 X33.548 Y45.456 E48.70550
G0 F9000 X34.849 Y45.459
G0 X35.902 Y46.224
G0 X36.304 Y47.460
G0 X47.961 Y60.756
G1 F1800 X47.495 Y61.222 E48.78458
G1 X47.195 Y61.809 E48.86369
G1 X47.091 Y62.460 E48.94280
G1 X47.195 Y63.111 E49.02191
G1 X47.495 Y63.698 E49.10102
G1 X47.961 Y64.164 E49.18010
G1 X48.548 Y64.464 E49.25921
G1 X49.199 Y64.568 E49.33832
G1 X49.850 Y64.464 E49.41743
G1 X50.437 Y64.164 E49.49653
G1 X50.903 Y63.698 E49.57562
G1 X51.203 Y63.111 E49.65472
G1 X51.307 Y62.460 E49.73383
G1 X51.203 Y61.809 E49.81294
G1 X50.903 Y61.222 E49.89205
G1 X50.437 Y60.756 E49.97113
G1 X49.850 Y60.456 E50.05024
G1 X49.199 Y60.352 E50.12935
G1 X48.548 Y60.456 E50.20846
G1 X47.961 Y60.756 E50.28757
G0 F9000 X62.494 Y48.699
G1 F1800 X62.960 Y49.165 E50.36665
G1 X63.548 Y49.465 E50.44586
G1 X64.199 Y49.567 E50.52493
G1 X64.850 Y49.465 E50.60401
G1 X65.437 Y49.165 E50.68311
G1 X65.903 Y48.699 E50.76220
G1 X66.203 Y48.112 E50.84130
G1 X66.307 Y47.460 E50.92053
G1 X66.203 Y46.809 E50.99964
G1 X65.903 Y46.222 E51.07875
G1 X65.437 Y45.756 E51.15783
G1 X64.850 Y45.456 E51.23694
G1 X64.199 Y45.352 E51.31605
G1 X63.547 Y45.456 E51.39528
G1 X62.960 Y45.756 E51.47438
G1 X62.494 Y46.222 E51.55347
G1 X62.194 Y46.809 E51.63257
G1 X62.092 Y47.460 E51.71165
G1 X62.194 Y48.111 E51.79072
G1 X62.494 Y48.699 E51.86993
G0 F9000 X63.548 Y75.455
G1 F1800 X62.960 Y75.755 E51.94915
G1 X62.494 Y76.221 E52.02823
G1 X62.194 Y76.809 E52.10744
G1 X62.092 Y77.460 E52.18651
G1 X62.194 Y78.111 E52.26559
G1 X62.494 Y78.698 E52.34469
G1 X62.960 Y79.164 E52.42378
G1 X63.547 Y79.464 E52.50288
G1 X64.199 Y79.568 E52.58211
G1 X64.850 Y79.464 E52.66122
G1 X65.437 Y79.164 E52.74033
G1 X65.903 Y78.698 E52.81941
G1 X66.203 Y78.111 E52.89852
G1 X66.307 Y77.460 E52.97763
G1 X66.203 Y76.808 E53.05686
G1 X65.903 Y76.221 E53.13596
G1 X65.437 Y75.755 E53.21505
G1 X64.850 Y75.455 E53.29415
G1 X64.199 Y75.353 E53.37323
G1 X63.548 Y75.455 E53.45230
G0 F9000 X36.306 Y77.460
G1 F1800 X36.204 Y76.809 E53.53137
G1 X35.904 Y76.221 E53.61058
G1 X35.438 Y75.755 E53.68967
G1 X34.850 Y75.455 E53.76888
G1 X34.199 Y75.353 E53.84795
G1 X33.548 Y75.455 E53.92703
G1 X32.961 Y75.755 E54.00613
G1 X32.495 Y76.221 E54.08522
G1 X32.195 Y76.808 E54.16432
G1 X32.091 Y77.460 E54.24355
G1 X32.195 Y78.111 E54.32266
G1 X32.495 Y78.698 E54.40177
G1 X32.961 Y79.164 E54.48085
G1 X33.548 Y79.464 E54.55996
G1 X34.199 Y79.568 E54.63907
G1 X34.851 Y79.464 E54.71830
G1 X35.438 Y79.164 E54.79740
G1 X35.904 Y78.698 E54.87649
G1 X36.204 Y78.111 E54.95559
G1 X36.306 Y77.460 E55.03466
G0 F9000 X35.902 Y78.696
G0 X35.410 Y79.050
G0 X35.200 Y78.837
;TYPE:WALL-OUTER
G1 F1800 X35.577 Y78.460 E55.09864
G1 X35.819 Y77.986 E55.16251
G1 X35.901 Y77.460 E55.22639
G1 X35.819 Y76.934 E55.29027
G1 X35.577 Y76.459 E55.35424
G1 X35.200 Y76.082 E55.41822
G1 X34.725 Y75.840 E55.48219
G1 X34.199 Y75.758 E55.54608
G1 X33.673 Y75.840 E55.60996
G1 X33.199 Y76.082 E55.67382
G1 X32.822 Y76.459 E55.73780
G1 X32.580 Y76.933 E55.80167
G1 X32.496 Y77.460 E55.86571
G1 X32.580 Y77.986 E55.92963
G1 X32.822 Y78.460 E55.99349
G1 X33.199 Y78.837 E56.05747
G1 X33.673 Y79.079 E56.12133
G1 X34.199 Y79.163 E56.18525
G1 X34.726 Y79.079 E56.24929
G1 X35.200 Y78.837 E56.31316
G0 F9000 X35.410 Y79.050
G0 X29.462 Y84.381
G0 X29.261 Y84.604
G1 F1800 X25.090 Y79.973 E57.06105
G1 X21.977 Y74.580 E57.80829
G1 X20.052 Y68.656 E58.55576
G1 X19.400 Y62.460 E59.30338
G1 X20.052 Y56.264 E60.05101
G1 X21.977 Y50.340 E60.79848
G1 X25.090 Y44.947 E61.54571
G1 X29.261 Y40.316 E62.29361
G1 X34.301 Y36.654 E63.04120
G1 X39.990 Y34.121 E63.78849
G1 X46.087 Y32.825 E64.53647
G1 X52.311 Y32.825 E65.28335
G1 X58.408 Y34.121 E66.03134
G1 X64.097 Y36.654 E66.77863
G1 X69.137 Y40.316 E67.52622
G1 X73.308 Y44.947 E68.27411
G1 X76.421 Y50.340 E69.02135
G1 X78.346 Y56.264 E69.76882
G1 X78.998 Y62.460 E70.51645
G1 X78.346 Y68.656 E71.26407
G1 X76.421 Y74.580 E72.01154
G1 X73.308 Y79.973 E72.75878
G1 X69.137 Y84.604 E73.50667
G1 X64.097 Y88.266 E74.25426
G1 X58.408 Y90.799 E75.00155
G1 X52.311 Y92.095 E75.74954
G1 X46.087 Y92.095 E76.49642
G1 X39.990 Y90.799 E77.24441
G1 X34.301 Y88.266 E77.99170
G1 X29.261 Y84.604 E78.73929
G0 F9000 X29.462 Y84.381
G0 X35.902 Y78.696
G0 X36.304 Y77.460
G0 X47.609 Y63.670
G0 X47.822 Y63.460
G1 F1800 X48.199 Y63.837 E78.80327
G1 X48.673 Y64.079 E78.86713
G1 X49.199 Y64.163 E78.93105
G1 X49.725 Y64.079 E78.99497
G1 X50.199 Y63.837 E79.05883
G1 X50.576 Y63.460 E79.12281
G1 X50.818 Y62.986 E79.18668
G1 X50.902 Y62.460 E79.25060
G1 X50.818 Y61.934 E79.31452
G1 X50.576 Y61.460 E79.37838
G1 X50.199 Y61.083 E79.44236
G1 X49.725 Y60.841 E79.50623
G1 X49.199 Y60.757 E79.57015
G1 X48.673 Y60.841 E79.63406
G1 X48.199 Y61.083 E79.69793
G1 X47.822 Y61.460 E79.76191
G1 X47.580 Y61.934 E79.82577
G1 X47.496 Y62.460 E79.88969
G1 X47.580 Y62.986 E79.95361
G1 X47.822 Y63.460 E80.01748
G0 F9000 X47.609 Y63.670
G0 X62.988 Y75.869
G0 X63.198 Y76.082
G1 F1800 X62.821 Y76.459 E80.08146
G1 X62.579 Y76.934 E80.14543
G1 X62.497 Y77.460 E80.20931
G1 X62.579 Y77.986 E80.27319
G1 X62.821 Y78.460 E80.33706
G1 X63.198 Y78.837 E80.40103
G1 X63.672 Y79.079 E80.46490
G1 X64.199 Y79.163 E80.52894
G1 X64.725 Y79.079 E80.59286
G1 X65.199 Y78.837 E80.65672
G1 X65.576 Y78.460 E80.72070
G1 X65.818 Y77.986 E80.78457
G1 X65.902 Y77.460 E80.84848
G1 X65.818 Y76.933 E80.91252
G1 X65.576 Y76.459 E80.97639
G1 X65.199 Y76.082 E81.04037
G1 X64.725 Y75.840 E81.10423
G1 X64.199 Y75.758 E81.16811
G1 X63.673 Y75.840 E81.23200
G1 X63.198 Y76.082 E81.29597
G0 F9000 X62.988 Y75.869
G0 X63.626 Y49.374
G0 X63.673 Y49.080
G1 F1800 X64.199 Y49.162 E81.35985
G1 X64.725 Y49.080 E81.42373
G1 X65.199 Y48.838 E81.48760
G1 X65.576 Y48.461 E81.55158
G1 X65.818 Y47.987 E81.61544
G1 X65.902 Y47.460 E81.67948
G1 X65.818 Y46.934 E81.74340
G1 X65.576 Y46.460 E81.80726
G1 X65.199 Y46.083 E81.87124
G1 X64.725 Y45.841 E81.93511
G1 X64.199 Y45.757 E81.99903
G1 X63.672 Y45.841 E82.06306
G1 X63.198 Y46.083 E82.12693
G1 X62.821 Y46.460 E82.19091
G1 X62.579 Y46.934 E82.25477
G1 X62.497 Y47.460 E82.31865
G1 X62.579 Y47.986 E82.38254
G1 X62.821 Y48.461 E82.44651
G1 X63.198 Y48.838 E82.51049
G1 X63.673 Y49.080 E82.57446
G0 F9000 X63.626 Y49.374
G0 X36.113 Y48.033
G0 X35.819 Y47.986
G1 F1800 X35.901 Y47.460 E82.63834
G1 X35.819 Y46.934 E82.70222
G1 X35.577 Y46.460 E82.76609
G1 X35.200 Y46.083 E82.83007
G1 X34.726 Y45.841 E82.89393
G1 X34.199 Y45.757 E82.95797
G1 X33.673 Y45.841 E83.02189
G1 X33.199 Y46.083 E83.08575
G1 X32.822 Y46.460 E83.14973
G1 X32.580 Y46.934 E83.21360
G1 X32.496 Y47.460 E83.27752
G1 X32.580 Y47.987 E83.34155
G1 X32.822 Y48.461 E83.40542
G1 X33.199 Y48.838 E83.46940
G1 X33.673 Y49.080 E83.53326
G1 X34.199 Y49.162 E83.59714
G1 X34.725 Y49.080 E83.66103
G1 X35.200 Y48.838 E83.72500
G1 X35.577 Y48.461 E83.78898
G1 X35.819 Y47.986 E83.85295
G0 F9000 X36.167 Y48.329
;TYPE:FILL
G1 F1800 X48.327 Y60.490 E85.91665
G0 F9000 X47.953 Y60.681
G1 F1800 X35.976 Y48.704 E87.94922
G0 F9000 X35.702 Y48.996
G1 F1800 X47.662 Y60.956 E89.97890
G0 F9000 X47.399 Y61.258
G1 F1800 X35.400 Y49.259 E92.01519
G0 F9000 X35.025 Y49.450
G1 F1800 X47.208 Y61.633 E94.08272
G0 F9000 X47.082 Y62.073
G1 F1800 X34.585 Y49.575 E96.20361
G0 F9000 X34.057 Y49.613
G1 F1800 X47.043 Y62.599 E98.40741
G0 F9000 X47.255 Y63.377
G1 F1800 X33.282 Y49.404 E100.77871
G0 F9000 X32.254 Y48.376
G1 F1800 X27.190 Y43.312 E101.63810
G0 F9000 X27.459 Y43.015
G1 F1800 X32.043 Y47.599 E102.41603
G0 F9000 X32.082 Y47.073
G1 F1800 X27.727 Y42.717 E103.15518
G0 F9000 X27.995 Y42.420
G1 F1800 X32.208 Y46.633 E103.87015
G0 F9000 X32.399 Y46.258
G1 F1800 X28.263 Y42.122 E104.57205
G0 F9000 X28.531 Y41.824
G1 F1800 X32.662 Y45.956 E105.27319
G0 F9000 X32.954 Y45.681
G1 F1800 X28.799 Y41.526 E105.97832
G0 F9000 X29.067 Y41.229
G1 F1800 X33.328 Y45.490 E106.70143
G0 F9000 X33.755 Y45.351
G1 F1800 X29.335 Y40.931 E107.45153
G0 F9000 X29.610 Y40.640
G1 F1800 X34.259 Y45.290 E108.24058
G0 F9000 X34.979 Y45.444
G1 F1800 X29.937 Y40.402 E109.09624
G0 F9000 X30.264 Y40.164
G1 F1800 X71.443 Y81.343 E116.08454
G0 F9000 X71.175 Y81.641
G1 F1800 X66.212 Y76.677 E116.92688
G0 F9000 X66.367 Y77.398
G1 F1800 X70.907 Y81.938 E117.69734
G0 F9000 X70.639 Y82.236
G1 F1800 X66.306 Y77.902 E118.43276
G0 F9000 X66.166 Y78.329
G1 F1800 X70.371 Y82.534 E119.14637
G0 F9000 X70.103 Y82.831
G1 F1800 X65.975 Y78.703 E119.84692
G0 F9000 X65.701 Y78.995
G1 F1800 X69.835 Y83.129 E120.54848
G0 F9000 X69.567 Y83.426
G1 F1800 X65.399 Y79.258 E121.25581
G0 F9000 X65.025 Y79.450
G1 F1800 X69.299 Y83.724 E121.98114
G0 F9000 X69.031 Y84.021
G1 F1800 X64.585 Y79.576 E122.73556
G0 F9000 X64.059 Y79.615
G1 F1800 X68.749 Y84.305 E123.53148
G0 F9000 X68.421 Y84.543
G1 F1800 X63.281 Y79.403 E124.40377
G0 F9000 X62.253 Y78.375
G1 F1800 X48.281 Y64.403 E126.77490
G0 F9000 X49.059 Y64.615
G1 F1800 X62.045 Y77.602 E128.97878
G0 F9000 X62.083 Y77.073
G1 F1800 X49.585 Y64.575 E131.09976
G0 F9000 X50.025 Y64.450
G1 F1800 X62.207 Y76.632 E133.16711
G0 F9000 X62.398 Y76.257
G1 F1800 X50.399 Y64.259 E135.20333
G0 F9000 X50.701 Y63.995
G1 F1800 X62.661 Y75.955 E137.23300
G0 F9000 X62.953 Y75.680
G1 F1800 X50.975 Y63.703 E139.26565
G0 F9000 X51.166 Y63.329
G1 F1800 X63.327 Y75.490 E141.32944
G0 F9000 X63.754 Y75.351
G1 F1800 X51.306 Y62.902 E143.44202
G0 F9000 X51.367 Y62.397
G1 F1800 X64.261 Y75.292 E145.63029
G0 F9000 X64.978 Y75.443
G1 F1800 X51.212 Y61.678 E147.96638
G0 F9000 X49.979 Y60.444
G1 F1800 X36.213 Y46.678 E150.30254
G0 F9000 X36.364 Y47.395
G1 F1800 X49.259 Y60.290 E152.49090
G0 F9000 X48.755 Y60.351
G1 F1800 X36.305 Y47.902 E154.60365
G0 F9000 X35.902 Y46.224
G0 X30.592 Y39.926
G1 F1800 X71.711 Y81.045 E161.58177
G0 F9000 X71.979 Y80.748
G1 F1800 X30.920 Y39.688 E168.54980
G0 F9000 X31.247 Y39.450
G1 F1800 X72.247 Y80.450 E175.50773
G0 F9000 X72.515 Y80.152
G1 F1800 X31.575 Y39.212 E182.45548
G0 F9000 X31.903 Y38.974
G1 F1800 X72.784 Y79.855 E189.39322
G0 F9000 X73.023 Y79.529
G1 F1800 X32.230 Y38.736 E196.31602
G0 F9000 X32.558 Y38.498
G1 F1800 X73.230 Y79.170 E203.21829
G0 F9000 X73.437 Y78.811
G1 F1800 X32.886 Y38.260 E210.10002
G0 F9000 X33.214 Y38.022
G1 F1800 X73.644 Y78.452 E216.96122
G0 F9000 X73.851 Y78.094
G1 F1800 X33.541 Y37.784 E223.80205
G0 F9000 X33.869 Y37.545
G1 F1800 X74.058 Y77.735 E230.62244
G0 F9000 X74.266 Y77.377
G1 F1800 X34.197 Y37.308 E237.42237
G0 F9000 X34.524 Y37.070
G1 F1800 X74.472 Y77.018 E244.20177
G0 F9000 X74.679 Y76.659
G1 F1800 X34.913 Y36.893 E250.95028
G0 F9000 X35.304 Y36.718
G1 F1800 X74.886 Y76.301 E257.66766
G0 F9000 X75.094 Y75.942
G1 F1800 X35.696 Y36.544 E264.35372
G0 F9000 X36.087 Y36.370
G1 F1800 X75.301 Y75.584 E271.00856
G0 F9000 X75.508 Y75.225
G1 F1800 X36.478 Y36.196 E277.63208
G0 F9000 X36.869 Y36.021
G1 F1800 X75.714 Y74.866 E284.22430
G0 F9000 X75.922 Y74.507
G1 F1800 X37.261 Y35.847 E290.78520
G0 F9000 X37.653 Y35.673
G1 F1800 X76.083 Y74.104 E297.30707
G0 F9000 X76.222 Y73.676
G1 F1800 X38.044 Y35.498 E303.78610
G0 F9000 X38.436 Y35.324
G1 F1800 X76.361 Y73.249 E310.22218
G0 F9000 X76.499 Y72.822
G1 F1800 X38.827 Y35.150 E316.61533
G0 F9000 X39.218 Y34.976
G1 F1800 X76.639 Y72.396 E322.96580
G0 F9000 X76.777 Y71.969
G1 F1800 X39.610 Y34.801 E329.27334
G0 F9000 X40.001 Y34.627
G1 F1800 X76.916 Y71.542 E335.53802
G0 F9000 X77.054 Y71.115
G1 F1800 X40.442 Y34.503 E341.75128
G0 F9000 X40.909 Y34.404
G1 F1800 X77.194 Y70.688 E347.90896
G0 F9000 X77.332 Y70.261
G1 F1800 X41.375 Y34.304 E354.01107
G0 F9000 X41.842 Y34.205
G1 F1800 X77.471 Y69.834 E360.05751
G0 F9000 X77.609 Y69.407
G1 F1800 X42.309 Y34.106 E366.04821
G0 F9000 X42.775 Y34.007
G1 F1800 X77.749 Y68.981 E371.98349
G0 F9000 X77.886 Y68.552
G1 F1800 X43.242 Y33.908 E377.86277
G0 F9000 X43.709 Y33.809
G1 F1800 X77.940 Y68.040 E383.67197
G0 F9000 X77.994 Y67.529
G1 F1800 X44.175 Y33.710 E389.41124
G0 F9000 X44.642 Y33.611
G1 F1800 X78.048 Y67.017 E395.08043
G0 F9000 X78.102 Y66.505
G1 F1800 X45.108 Y33.511 E400.67969
G0 F9000 X45.575 Y33.412
G1 F1800 X78.155 Y65.993 E406.20879
G0 F9000 X78.209 Y65.481
G1 F1800 X46.041 Y33.313 E411.66788
G0 F9000 X46.587 Y33.293
G1 F1800 X78.263 Y64.969 E417.04347
G0 F9000 X78.317 Y64.457
G1 F1800 X63.247 Y49.388 E419.60085
G0 F9000 X64.036 Y49.611
G1 F1800 X78.370 Y63.945 E422.03341
G0 F9000 X78.424 Y63.433
G1 F1800 X64.569 Y49.578 E424.38468
G0 F9000 X65.014 Y49.457
